images/pinterest-icon-black.svg

<svg width="16" height="16" viewBox="0 0 16 16" fill="none" xmlns="http://www.w3.org/2000/svg">
<path fill-rule="evenodd" clip-rule="evenodd" d="M8.00047 0C3.58253 0 0 3.58158 0 8.00047C0 11.2754 1.97001 14.0902 4.78956 15.3273C4.76698 14.7694 4.78579 14.0977 4.92785 13.49C5.08214 12.8408 5.95708 9.1313 5.95708 9.1313C5.95708 9.1313 5.70212 8.62045 5.70212 7.865C5.70212 6.6796 6.38984 5.79432 7.24502 5.79432C7.97225 5.79432 8.3241 6.34092 8.3241 6.99571C8.3241 7.7267 7.85747 8.82084 7.61757 9.83407C7.41718 10.6836 8.04281 11.3751 8.88011 11.3751C10.3957 11.3751 11.4165 9.42859 11.4165 7.12177C11.4165 5.36908 10.2358 4.05668 8.08796 4.05668C5.66167 4.05668 4.14982 5.86582 4.14982 7.88663C4.14982 8.5847 4.35491 9.07579 4.67666 9.45587C4.82531 9.6318 4.84506 9.70142 4.79144 9.90275C4.75381 10.0486 4.66537 10.4042 4.62868 10.5444C4.57506 10.7466 4.41136 10.82 4.22885 10.7448C3.11025 10.2885 2.58999 9.0645 2.58999 7.68813C2.58999 5.41612 4.50638 2.68972 8.30717 2.68972C11.3619 2.68972 13.3724 4.90151 13.3724 7.27324C13.3724 10.4117 11.6282 12.7562 9.0551 12.7562C8.19239 12.7562 7.37955 12.2895 7.10108 11.7599C7.10108 11.7599 6.63633 13.6029 6.53848 13.9585C6.36914 14.5747 6.03704 15.1919 5.73317 15.6717C6.45287 15.8843 7.21303 16 8.00047 16C12.4184 16 16 12.4184 16 8.00047C16 3.58158 12.4184 0 8.00047 0Z" fill="#151515"/>
</svg>

<svg width="16" height="16" fill="none" xmlns="http://www.w3.org/2000/svg"><path fill-rule="evenodd" clip-rule="evenodd" d="M8 0a8 8 0 0 0-3.21 15.327c-.023-.558-.004-1.23.138-1.837l1.03-4.359s-.256-.51-.256-1.266c0-1.185.688-2.07 1.543-2.07.727 0 1.08.546 1.08 1.2 0 .732-.468 1.826-.707 2.84-.2.849.425 1.54 1.262 1.54 1.516 0 2.536-1.946 2.536-4.253 0-1.753-1.18-3.065-3.328-3.065-2.426 0-3.938 1.809-3.938 3.83 0 .698.205 1.189.527 1.569.148.176.168.245.114.447l-.162.641c-.054.203-.218.276-.4.2C3.11 10.29 2.59 9.065 2.59 7.689c0-2.272 1.916-4.998 5.717-4.998 3.055 0 5.065 2.212 5.065 4.583 0 3.139-1.744 5.483-4.317 5.483-.863 0-1.675-.466-1.954-.996 0 0-.465 1.843-.563 2.199-.169.616-.501 1.233-.805 1.713A8 8 0 0 0 16 8 8 8 0 0 0 8 0Z" fill="#151515"/></svg>
